X:913
T:Carolynn's waltz
R:Waltz
S:Xerox of uncertain origin
Z:Transcription, chords:Mike Long
M:3/4
L:1/4
K:D
A,|:\
"D"F>ED|D3|F>ED|F<AG|F>ED|"Bm"D2C|"G"B,2F|"A"GAG|"D"F>ED|D2d|"A"c>BA|
"A7"a2g|"D"f/g/a2|"Bm"d/e/f2|"Em"e/f/g/f/e/d/|"A"c/d/c/B/A/G/||\
"D"F>ED|D3|F>ED|F<AG|F>ED|"Bm"D2C|
"G"B,2F|"A"GAG|"D"F>ED|D2d|"A"c>BA|a2g|"D"f/e/d2|"G"d/c/B2|"A"A/B/A/G/F/E/|"D"DFA|]
"D"d2A|f>ed|"G"B<GB/d/|"D"A2A|"A"e2A|"D"f2A|"Em"g>gf/g/|"A"a3|"G"b/a/g>f|"A"e/A/f/A/g/A/|"D"a/g/f>e|
"Bm"d/A/e/A/f/A/|"G"g/a/gA|"D"f/g/fA|"A"e/f/e/d/c/B/|"A7"ABc||"D"d2A|f>ed|"G"B<GB/d/|
"D"A2A|"A"e2A|"D"f2A|"Em"g>gf/g/|"A"a3|"G"b/a/g>f|"A"e/A/f/A/g/A/|"D"a/g/f>e|"Bm"d/A/e/A/f/A/|
[1 "G"g/f/e2|"D"f/e/d>c|"G"B/A/G/F/E/D/|"A"C/A,/D/A,/E/A,/:|[2 "Fin G"g/f/e/d/c|"Em"e/d/c/B/A|"A"c/B/A/G/F/E/|"D"D3|]
